src/lib/packages/icons/src/assets/line/calculator-simple.svg

<svg width="24" height="24" viewBox="0 0 24 24" fill="none" xmlns="http://www.w3.org/2000/svg">
<path d="M18 2.25H6C3.582 2.25 2.25 3.582 2.25 6V18C2.25 20.418 3.582 21.75 6 21.75H18C20.418 21.75 21.75 20.418 21.75 18V6C21.75 3.582 20.418 2.25 18 2.25ZM20.25 6V11.25H12.75V3.75H18C19.577 3.75 20.25 4.423 20.25 6ZM6 3.75H11.25V11.25H3.75V6C3.75 4.423 4.423 3.75 6 3.75ZM3.75 18V12.75H11.25V20.25H6C4.423 20.25 3.75 19.577 3.75 18ZM18 20.25H12.75V12.75H20.25V18C20.25 19.577 19.577 20.25 18 20.25ZM18.75 15.25C18.75 15.664 18.414 16 18 16H15C14.586 16 14.25 15.664 14.25 15.25C14.25 14.836 14.586 14.5 15 14.5H18C18.414 14.5 18.75 14.836 18.75 15.25ZM5.25 7.5C5.25 7.086 5.586 6.75 6 6.75H9C9.414 6.75 9.75 7.086 9.75 7.5C9.75 7.914 9.414 8.25 9 8.25H6C5.586 8.25 5.25 7.914 5.25 7.5ZM14.25 7.5C14.25 7.086 14.586 6.75 15 6.75H15.75V6C15.75 5.586 16.086 5.25 16.5 5.25C16.914 5.25 17.25 5.586 17.25 6V6.75H18C18.414 6.75 18.75 7.086 18.75 7.5C18.75 7.914 18.414 8.25 18 8.25H17.25V9C17.25 9.414 16.914 9.75 16.5 9.75C16.086 9.75 15.75 9.414 15.75 9V8.25H15C14.586 8.25 14.25 7.914 14.25 7.5ZM9.28 17.22C9.573 17.513 9.573 17.988 9.28 18.281C9.134 18.427 8.942 18.501 8.75 18.501C8.558 18.501 8.366 18.428 8.22 18.281L7.5 17.561L6.78 18.281C6.634 18.427 6.442 18.501 6.25 18.501C6.058 18.501 5.866 18.428 5.72 18.281C5.427 17.988 5.427 17.513 5.72 17.22L6.44 16.5L5.72 15.78C5.427 15.487 5.427 15.012 5.72 14.719C6.013 14.426 6.488 14.426 6.781 14.719L7.501 15.439L8.22099 14.719C8.51399 14.426 8.989 14.426 9.282 14.719C9.575 15.012 9.575 15.487 9.282 15.78L8.562 16.5L9.28 17.22ZM18.75 17.75C18.75 18.164 18.414 18.5 18 18.5H15C14.586 18.5 14.25 18.164 14.25 17.75C14.25 17.336 14.586 17 15 17H18C18.414 17 18.75 17.336 18.75 17.75Z" fill="currentColor"/>
</svg>

<svg xmlns="http://www.w3.org/2000/svg" width="24" height="24" fill="none"><path fill="currentColor" d="M18 2.25H6C3.582 2.25 2.25 3.582 2.25 6v12c0 2.418 1.332 3.75 3.75 3.75h12c2.418 0 3.75-1.332 3.75-3.75V6c0-2.418-1.332-3.75-3.75-3.75ZM20.25 6v5.25h-7.5v-7.5H18c1.577 0 2.25.673 2.25 2.25ZM6 3.75h5.25v7.5h-7.5V6c0-1.577.673-2.25 2.25-2.25ZM3.75 18v-5.25h7.5v7.5H6c-1.577 0-2.25-.673-2.25-2.25ZM18 20.25h-5.25v-7.5h7.5V18c0 1.577-.673 2.25-2.25 2.25Zm.75-5A.75.75 0 0 1 18 16h-3a.75.75 0 0 1 0-1.5h3a.75.75 0 0 1 .75.75ZM5.25 7.5A.75.75 0 0 1 6 6.75h3a.75.75 0 0 1 0 1.5H6a.75.75 0 0 1-.75-.75Zm9 0a.75.75 0 0 1 .75-.75h.75V6a.75.75 0 0 1 1.5 0v.75H18a.75.75 0 0 1 0 1.5h-.75V9a.75.75 0 0 1-1.5 0v-.75H15a.75.75 0 0 1-.75-.75Zm-4.97 9.72a.75.75 0 0 1-1.06 1.061l-.72-.72-.72.72a.748.748 0 0 1-1.06 0 .75.75 0 0 1 0-1.061l.72-.72-.72-.72a.75.75 0 1 1 1.061-1.061l.72.72.72-.72a.75.75 0 1 1 1.061 1.061l-.72.72.718.72Zm9.47.53a.75.75 0 0 1-.75.75h-3a.75.75 0 0 1 0-1.5h3a.75.75 0 0 1 .75.75Z"/></svg>
